assets/img/icons/socials/instagram.svg

<svg width="24" height="24" viewBox="0 0 24 24" version="1.1" xmlns="http://www.w3.org/2000/svg" xmlns:xlink="http://www.w3.org/1999/xlink">
<title>instagram</title>
<desc>Created using Figma</desc>
<g id="Canvas" transform="translate(-1790 -1601)">
<g id="ic/24/social/instagram">
<g id="Combined Shape">
<use xlink:href="#path0_fill" transform="translate(1793 1604)" fill="#FFFFFF"/>
</g>
<mask id="mask0_outline" mask-type="alpha">
<g id="Combined Shape">
<use xlink:href="#path1_fill" transform="translate(1797.36 1606.6)" fill="#FFFFFF"/>
</g>
</mask>
</g>
</g>
<defs>
<path id="path0_fill" fill-rule="evenodd" d="M 13.0326 0L 4.96729 0C 2.22827 0 0 2.22839 0 4.96741L 0 13.0326C 0 15.7717 2.22827 18 4.96729 18L 13.0326 18C 15.7717 18 18 15.7716 18 13.0326L 18 4.96741C 18.0001 2.22839 15.7717 0 13.0326 0ZM 17.0001 13.3579C 17.0001 15.3662 15.3662 17 13.3579 17L 4.64197 17C 2.63379 17.0001 1 15.3662 1 13.3579L 1 4.64209C 1 2.63391 2.63379 1 4.64197 1L 13.3578 1C 15.3661 1 17 2.63391 17 4.64209L 17.0001 13.3579ZM 4.36182 9.00024C 4.36182 6.44275 6.4425 4.36206 9 4.36206C 11.5575 4.36206 13.6381 6.44275 13.6381 9.00024C 13.6381 11.5576 11.5575 13.6382 9 13.6382C 6.4425 13.6382 4.36182 11.5576 4.36182 9.00024ZM 13.4348 2.83411C 13.5833 2.68506 13.7898 2.59998 14 2.59998C 14.2108 2.59998 14.4174 2.68506 14.5658 2.83411C 14.7148 2.98254 14.7999 3.18909 14.7999 3.40002C 14.7999 3.61011 14.7148 3.81665 14.5658 3.96582C 14.4166 4.11414 14.2108 4.19995 14 4.19995C 13.7898 4.19995 13.5833 4.11414 13.4348 3.96582C 13.2858 3.81665 13.2 3.61023 13.2 3.40002C 13.2 3.26428 13.2355 3.13049 13.3004 3.0127C 13.3364 2.94739 13.3816 2.88708 13.4348 2.83411Z"/>
<path id="path1_fill" fill-rule="evenodd" d="M 9.073 0.234131C 9.22144 0.085083 9.42798 0 9.63818 0C 9.849 0 10.0555 0.085083 10.204 0.234131C 10.353 0.382568 10.4381 0.589111 10.4381 0.800049C 10.4381 1.01013 10.353 1.21667 10.204 1.36584C 10.0548 1.51416 9.849 1.59998 9.63818 1.59998C 9.42798 1.59998 9.22144 1.51416 9.073 1.36584C 8.92395 1.21667 8.83813 1.01025 8.83813 0.800049C 8.83813 0.664307 8.87366 0.530518 8.9386 0.41272C 8.97461 0.347412 9.01978 0.287109 9.073 0.234131ZM 4.63818 1.76208C 2.08069 1.76208 0 3.84277 0 6.40027C 0 8.95764 2.08069 11.0382 4.63818 11.0382C 7.19568 11.0382 9.27625 8.95764 9.27625 6.40027C 9.27625 3.84277 7.19568 1.76208 4.63818 1.76208ZM 4.63818 10.2397C 2.52087 10.2397 0.798218 8.51733 0.798218 6.40002C 0.798218 4.28259 2.52075 2.56006 4.63818 2.56006C 6.75562 2.56006 8.47827 4.28259 8.47827 6.40002C 8.47827 8.51733 6.75549 10.2397 4.63818 10.2397Z"/>
</defs>
</svg>

<svg width="24" height="24" xmlns="http://www.w3.org/2000/svg" xmlns:xlink="http://www.w3.org/1999/xlink"><use xlink:href="#path0_fill" transform="translate(3 3)" fill="#FFF"/><defs><path id="path0_fill" fill-rule="evenodd" d="M13.0326 0H4.9673C2.2283 0 0 2.2284 0 4.9674v8.0652C0 15.7717 2.2283 18 4.9673 18h8.0653C15.7717 18 18 15.7716 18 13.0326V4.9674C18.0001 2.2284 15.7717 0 13.0326 0zm3.9675 13.3579c0 2.0083-1.6339 3.6421-3.6422 3.6421h-8.716C2.6339 17.0001 1 15.3662 1 13.3579V4.6421C1 2.6339 2.6338 1 4.642 1h8.7158C15.3661 1 17 2.634 17 4.642l.0001 8.7159zM4.3618 9.0002c0-2.5574 2.0807-4.6381 4.6382-4.6381s4.6381 2.0807 4.6381 4.6381c0 2.5574-2.0806 4.638-4.6381 4.638-2.5575 0-4.6382-2.0806-4.6382-4.638zm9.073-6.166A.8036.8036 0 0 1 14 2.6c.2108 0 .4174.085.5658.2341a.804.804 0 0 1 .2341.566c0 .21-.0851.4165-.2341.5657A.8083.8083 0 0 1 14 4.2a.8067.8067 0 0 1-.5652-.2342A.807.807 0 0 1 13.2 3.4a.8052.8052 0 0 1 .1004-.3873.7908.7908 0 0 1 .1344-.1786z"/><path id="path1_fill" fill-rule="evenodd" d="M9.073.2341A.8035.8035 0 0 1 9.6382 0a.804.804 0 0 1 .5658.2341.804.804 0 0 1 .2341.566c0 .21-.0851.4166-.2341.5657a.8083.8083 0 0 1-.5658.2342.8066.8066 0 0 1-.5652-.2342A.8069.8069 0 0 1 8.8381.8.805.805 0 0 1 9.073.2341zm-4.4348 1.528C2.0807 1.762 0 3.8428 0 6.4003c0 2.5573 2.0807 4.6379 4.6382 4.6379s4.638-2.0806 4.638-4.638-2.0805-4.6381-4.638-4.6381zm0 8.4776c-2.1173 0-3.84-1.7224-3.84-3.8397 0-2.1174 1.7226-3.84 3.84-3.84s3.84 1.7226 3.84 3.84c0 2.1173-1.7227 3.8397-3.84 3.8397z"/></defs></svg>
